!!!COM: Bohuslav (Jan) Martinů
!!!OTL: [T499_Mau-55/16/3-1[13]1-5]
**kern	**dynam	**kern	**dynam	**kern	**dynam	**kern	**dynam
*grp:A	*grp:A	*grp:A	*grp:A	*grp:B	*grp:B	*grp:B	*grp:B
*part4	*part4	*part3	*part3	*part2	*part2	*part1	*part1
*staff4	*staff4	*staff3	*staff3	*staff2	*staff2	*staff1	*staff1
*I"Violoncello	*I"Violoncello	*I"Viola	*I"Viola	*I"Violin II	*I"Violin II	*I"Violin I	*I"Violin I
*I'Vc.	*	*I'Vla.	*	*I'Vln. II	*	*I'Vln. I	*
*clefF4	*	*clefG2	*	*clefG2	*	*clefG2	*
*k[]	*	*k[]	*	*k[]	*	*k[]	*
*C:	*	*C:	*	*C:	*	*C:	*
*M4/4	*	*M4/4	*	*M4/4	*	*M4/4	*
=1	=1	=1	=1	=1	=1	=1	=1
!	!LO:DY:ed=brack	!	!LO:DY:ed=brack	!	!	!	!LO:DY:t=[ %s cresc. ]
!	!	!	!	!	!	!	!LO:HP:t= 
16ryy	4ryy	4ryy	4ryy	8r	.	(4ggn	f <
16ryy	.	.	.	.	.	.	.
!	!	!	!	!	!LO:DY:ed=brack	!	!
16ryy	.	.	.	16cn'LL 16a	mf	.	.
16ryy	.	.	.	16c'JJ 16a	.	.	.
4ryy	.	8ryy	.	16c'LL 16a	.	4.ffn)	.
.	.	.	.	16c'JJ 16a	.	.	.
.	.	8ryy	.	8r	.	.	.
16ryy	.	8ryy	.	8r	.	.	.
16ryy	.	.	.	.	.	.	.
16ryy	.	8ryy	.	16c'LL 16a	.	(8aa-X	.
16ryy	.	.	.	16c'JJ 16a	.	.	.
4ryy	.	8ryy	.	16c'LL 16a	.	4gg-X	.
.	.	.	.	16c'JJ 16a	.	.	.
.	.	8ryy	.	8r	.	.	.
=2	=2	=2	=2	=2	=2	=2	=2
16ryy	.	8ryy	.	8r	.	4.ff)	.
16ryy	.	.	.	.	.	.	.
16ryy	.	8ryy	.	16c'LL 16a	.	.	.
16ryy	.	.	.	16c'JJ 16a	.	.	.
4ryy	4ryy	8ryy	4ryy	16c'LL 16a	.	.	.
.	.	.	.	16c'JJ 16a	.	.	.
.	.	8ryy	.	8r	.	(8aa-X	<
16ryy	.	4ryy	.	8r	.	4gg-X	.
16ryy	.	.	.	.	.	.	.
16ryy	.	.	.	16c'LL 16a	<	.	.
16ryy	.	.	.	16c'JJ 16a	.	.	.
4ryy	4ryy	8ryy	4ryy	16c'LL 16a	.	8ee-XL)	.
.	.	.	.	16c'JJ 16a	.	.	.
.	.	8ryy	.	8r	[	(8bb-XJ	[
=3	=3	=3	=3	=3	=3	=3	=3
16ryy	.	8ryy	.	8r	.	4.ff#X)	.
16ryy	.	.	.	.	.	.	.
16ryy	.	8ryy	.	16c#X'LL 16an	.	.	.
16ryy	.	.	.	16c#'JJ 16a	.	.	.
4ryy	.	8ryy	.	16c#'LL 16a	.	.	.
.	.	.	.	16c#'JJ 16a	.	.	.
.	.	8ryy	.	8r	.	(8aan	.
16ryy	4ryy	8ryy	.	8r	.	4ggn)	<
16ryy	.	.	.	.	.	.	.
16ryy	.	8ryy	4ryy	16c#'LL 16a	<	.	.
16ryy	.	.	.	16c#'JJ 16a	.	.	.
4ryy	4ryy	8ryy	.	16c#'LL 16a	.	(8aaL	.
.	.	.	.	16c#'JJ 16a	.	.	.
.	.	8ryy	4ryy	8r	[	[8ff#XJ	[
!!LO:REH:t=13
=4	=4	=4	=4	=4	=4	=4	=4
!	!LO:DY:rj:t=poco %s	!	!	!	!	!	!
16ryy	4ryy	8ryy	.	8r	.	8ff#L])	f
16ryy	.	.	.	.	.	.	.
!	!	!	!	!	!LO:DY:rj:t=poco %s	!	!
16ryy	.	8ryy	4ryy	16c#X'LL 16a#X	f	(8bb-XJ	.
16ryy	.	.	.	16c#'JJ 16a#	.	.	.
8ryy	.	8ryy	.	16c#'LL 16a#	.	[4gg)	.
.	.	.	.	16c#' 16a#	.	.	.
!	!LO:DY:t=%s espress.	!	!	!	!	!	!
8ryy	4ryy	8ryy	.	16c#' 16a#	.	.	.
.	.	.	.	16c#'JJ 16a#	.	.	.
8ryy	.	2ryy	.	8r	.	8ggL]	.
8ryy	.	.	.	16c#'LL 16a#	.	(8ggJ	.
.	.	.	.	16c#'JJ 16a#	.	.	.
8ryy	4ryy	.	.	16c#'LL 16a#	.	8ff#XL	.
.	.	.	.	16c#' 16a#	.	.	.
8ryy	.	.	.	16c#' 16a#	.	8dJ)	.
.	.	.	.	16c#'JJ 16a#	.	.	.
*clefG2	*	*	*	*	*	*	*
=5	=5	=5	=5	=5	=5	=5	=5
8ryy	.	8ryy	.	8r	.	(8gL	.
8ryy	.	8ryy	4ryy	16c#X'LL 16a#X	.	8f#XJ	.
.	.	.	.	16c#'JJ 16a#	.	.	.
4ryy	4ryy	8ryy	.	16c#'LL 16a#	.	8GL)	.
.	.	.	.	16c#' 16a#	.	.	.
.	.	8ryy	4ryy	16c#' 16a#	.	(8b-XJ	.
.	.	.	.	16c#'JJ 16a#	.	.	.
*clefF4	*	*	*	*	*	*	*
8ryy	.	8ryy	.	8r	.	8f#L	.
8ryy	.	8ryy	.	16c#'LL 16a#	.	8eJ)	.
.	.	.	.	16c#'JJ 16a#	.	.	.
4ryy	.	8ryy	.	16c#'LL 16a#	.	(8gL	.
.	.	.	.	16c#' 16a#	.	.	.
.	.	8ryy	.	16c#' 16a#	.	8f#J	.
.	.	.	.	16c#'JJ 16a#	.	.	.
!!linebreak:original
=6	=6	=6	=6	=6	=6	=6	=6
8ryy	4ryy	8ryy	.	8r	.	8GL)	.
8ryy	.	8ryy	.	16c#X'LL 16a#X	.	(8ccJ	.
.	.	.	.	16c#'JJ 16a#	.	.	.
4ryy	.	8ryy	.	16c#'LL 16a#	.	8b-XL	.
.	.	.	.	16c#' 16a#	.	.	.
.	.	8ryy	.	16c#' 16a#	.	8gJ	.
.	.	.	.	16c#'JJ 16a#	.	.	.
4ryy	4ryy	4ryy	4ryy	8r	.	8c#XL)	.
.	.	.	.	16c#'LL 16a#	<	(8eenJ	<
.	.	.	.	16c#'JJ 16a#	.	.	.
8ryy	.	8ryy	.	16c#'LL 16a#	.	8ccL	.
.	.	.	.	16c#' 16a#	.	.	.
8ryy	.	8ryy	4ryy	16c#' 16a#	.	8b-XJ)	[
.	.	.	.	16c#'JJ 16a#	[	.	.
=7	=7	=7	=7	=7	=7	=7	=7
4ryy	4ryy	8ryy	.	8r	.	(8cc#XL	.
.	.	8ryy	.	16c#X'LL 16a#X	.	8aJ	.
.	.	.	.	16c#'JJ 16a#	.	.	.
4ryy	.	4ryy	.	16c#'LL 16a#	.	8e-XL)	.
.	.	.	.	16c#' 16a#	.	.	.
.	.	.	.	16c#' 16a#	.	[8een'^J	f
.	.	.	.	16c#'JJ 16a#	.	.	.
*clefG2	*	*	*	*	*	*	*
!	!	!	!LO:DY:rj:t=molto %s	!	!	!	!
8ryy	4ryy	8ryy	4ryy	8r	.	12eeL]	.
.	.	.	.	.	.	(12dd#X	.
8ryy	.	8ryy	.	16B-X'LL 16gn	f	.	.
.	.	.	.	.	.	12cc#XJ	.
.	.	.	.	16B-'JJ 16g	.	.	.
8ryy	.	8ryy	.	16B-'LL 16g	.	12ddnL	.
.	.	.	.	16B-' 16g	.	.	.
.	.	.	.	.	.	12ee	.
8ryy	.	8ryy	.	16B-' 16g	.	.	.
.	.	.	.	.	.	12cc#J)	.
.	.	.	.	16B-'JJ 16g	.	.	.
=8	=8	=8	=8	=8	=8	=8	=8
8ryy	.	8ryy	.	8r	.	(16dd#XLL	.
.	.	.	.	.	.	16ee	.
8ryy	.	8ryy	.	16B-X'LL 16an	.	16cc#X	.
.	.	.	.	16B-'JJ 16a	.	16dd#JJ)	.
8ryy	.	8ryy	.	16B-'LL 16a	.	(12eeL	.
.	.	.	.	16B-' 16a	.	.	.
.	.	.	.	.	.	12dd#	.
8ryy	.	8ryy	.	16B-' 16a	.	.	.
.	.	.	.	.	.	12cc#J)	.
.	.	.	.	16B-'JJ 16a	.	.	.
8ryy	.	4ryy	.	8r	.	(12dd#L	.
.	.	.	.	.	.	12ee	.
8ryy	.	.	.	16B-'LL 16a	.	.	.
.	.	.	.	.	.	12cc#J)	.
.	.	.	.	16B-'JJ 16a	.	.	.
4ryy	.	8ryy	.	16B-'LL 16a	.	(16dd#LL	.
.	.	.	.	16B-' 16a	.	16ee	.
.	.	8ryy	.	16B-' 16a	.	16cc#	.
.	.	.	.	16B-'JJ 16a	.	16dd#JJ)	.
=||	=||	=||	=||	=||	=||	=||	=||
*-	*-	*-	*-	*-	*-	*-	*-
!!!system-decoration: [(s1,s2,s3,s4)]
